dist/img/svg/cutting_icon.svg

<svg version="1.2" baseProfile="tiny-ps" xmlns="http://www.w3.org/2000/svg" width="1200" height="1344"><style>.shp0{fill:#000}</style><g id="Outline"><path id="&lt;Compound Path&gt;" fill-rule="evenodd" class="shp0" d="M984 1152H288c-11.32 0-21.1-7.91-23.47-18.97l-72-336c-.02-.11-.04-.22-.06-.32-2.6-13 5.83-25.65 18.82-28.24C215.17 767.6 312 744.16 312 576c0-184.5-93-396.14-93.93-398.26-5.2-11.73-.27-25.47 11.2-31.21l288-144c11.12-5.56 24.65-1.7 31.17 8.89C601 96.83 693.36 207.55 834.9 250.01c83.51 25.06 144.2 14.48 144.81 14.38 1.41-.26 2.85-.39 4.29-.39 13.25 0 24 10.74 24 24v840c0 13.25-10.75 24-24 24zM816 294.4c-82.56-25.84-198-88.42-296.65-239.24L270.83 179.42C295.13 239.25 360 414.19 360 576c0 59.28-11.63 141.57-67.03 196.97a169.364 169.364 0 01-49.1 34.54L307.4 1104H816V816h-24c-13.26 0-24-10.75-24-24s10.74-24 24-24h24V294.4zm144 19.93c-32.19 1.2-64.42-1.38-96-7.71V1104h96V314.33z"/><path id="&lt;Path&gt;" class="shp0" d="M456 456h-48c-13.26 0-24 10.74-24 24s10.74 24 24 24h48c13.25 0 24-10.74 24-24s-10.75-24-24-24zm-48 312h-48c-13.26 0-24 10.75-24 24s10.74 24 24 24h48c13.25 0 24-10.75 24-24s-10.75-24-24-24zm144 0h-48c-13.26 0-24 10.75-24 24s10.74 24 24 24h48c13.25 0 24-10.75 24-24s-10.75-24-24-24zm96 48h48c13.25 0 24-10.75 24-24s-10.75-24-24-24h-48c-13.26 0-24 10.75-24 24s10.74 24 24 24zm-96-360c-13.26 0-24 10.74-24 24s10.74 24 24 24h48c13.25 0 24-10.74 24-24s-10.75-24-24-24h-48zm144 48h48c13.25 0 24-10.74 24-24s-10.75-24-24-24h-48c-13.26 0-24 10.74-24 24s10.74 24 24 24zM24 1104c-13.26 0-24 10.75-24 24s10.74 24 24 24h96c13.25 0 24-10.75 24-24s-10.75-24-24-24H96V816h24c13.25 0 24-10.75 24-24s-10.75-24-24-24H24c-13.26 0-24 10.75-24 24s10.74 24 24 24h24v288H24zM816 48c-13.26 0-24 10.74-24 24v96c0 13.26 10.74 24 24 24 13.25 0 24-10.74 24-24v-24h96v24c0 13.26 10.74 24 24 24 13.25 0 24-10.74 24-24V72c0-13.26-10.75-24-24-24-13.26 0-24 10.74-24 24v24h-96V72c0-13.26-10.75-24-24-24zm144 1296c13.25 0 24-10.75 24-24v-96c0-13.25-10.75-24-24-24-13.26 0-24 10.75-24 24v24H312v-24c0-13.25-10.75-24-24-24-13.26 0-24 10.75-24 24v96c0 13.25 10.74 24 24 24 13.25 0 24-10.75 24-24v-24h624v24c0 13.25 10.74 24 24 24zm216-1032c13.25 0 24-10.74 24-24s-10.75-24-24-24h-96c-13.26 0-24 10.74-24 24s10.74 24 24 24h24v792h-24c-13.26 0-24 10.75-24 24s10.74 24 24 24h96c13.25 0 24-10.75 24-24s-10.75-24-24-24h-24V312h24z"/></g></svg>

<svg version="1.2" baseProfile="tiny-ps" xmlns="http://www.w3.org/2000/svg" viewBox="0 0 1200 1344" width="1200" height="1344">
	<title>Outline</title>
	<style>
		tspan { white-space:pre }
		.shp0 { fill: #000000 } 
	</style>
	<g id="Outline">
		<path id="&lt;Compound Path&gt;" fill-rule="evenodd" class="shp0" d="M984 1152L288 1152C276.68 1152 266.9 1144.09 264.53 1133.03L192.53 797.03C192.51 796.92 192.49 796.81 192.47 796.71C189.87 783.71 198.3 771.06 211.29 768.47C215.17 767.6 312 744.16 312 576C312 391.5 219 179.86 218.07 177.74C212.87 166.01 217.8 152.27 229.27 146.53L517.27 2.53C528.39 -3.03 541.92 0.83 548.44 11.42C601 96.83 693.36 207.55 834.9 250.01C918.41 275.07 979.1 264.49 979.71 264.39C981.12 264.13 982.56 264 984 264C997.25 264 1008 274.74 1008 288L1008 1128C1008 1141.25 997.25 1152 984 1152ZM816 294.4C733.44 268.56 618 205.98 519.35 55.16L270.83 179.42C295.13 239.25 360 414.19 360 576C360 635.28 348.37 717.57 292.97 772.97C278.79 787.32 262.16 799.01 243.87 807.51L307.4 1104L816 1104L816 816L792 816C778.74 816 768 805.25 768 792C768 778.75 778.74 768 792 768L816 768L816 294.4ZM960 314.33C927.81 315.53 895.58 312.95 864 306.62L864 1104L960 1104L960 314.33Z" />
		<path id="&lt;Path&gt;" class="shp0" d="M456 456L408 456C394.74 456 384 466.74 384 480C384 493.26 394.74 504 408 504L456 504C469.25 504 480 493.26 480 480C480 466.74 469.25 456 456 456Z" />
		<path id="&lt;Path&gt;" class="shp0" d="M408 768L360 768C346.74 768 336 778.75 336 792C336 805.25 346.74 816 360 816L408 816C421.25 816 432 805.25 432 792C432 778.75 421.25 768 408 768Z" />
		<path id="&lt;Path&gt;" class="shp0" d="M552 768L504 768C490.74 768 480 778.75 480 792C480 805.25 490.74 816 504 816L552 816C565.25 816 576 805.25 576 792C576 778.75 565.25 768 552 768Z" />
		<path id="&lt;Path&gt;" class="shp0" d="M648 816L696 816C709.25 816 720 805.25 720 792C720 778.75 709.25 768 696 768L648 768C634.74 768 624 778.75 624 792C624 805.25 634.74 816 648 816Z" />
		<path id="&lt;Path&gt;" class="shp0" d="M552 456C538.74 456 528 466.74 528 480C528 493.26 538.74 504 552 504L600 504C613.25 504 624 493.26 624 480C624 466.74 613.25 456 600 456L552 456Z" />
		<path id="&lt;Path&gt;" class="shp0" d="M696 504L744 504C757.25 504 768 493.26 768 480C768 466.74 757.25 456 744 456L696 456C682.74 456 672 466.74 672 480C672 493.26 682.74 504 696 504Z" />
		<path id="&lt;Path&gt;" class="shp0" d="M24 1104C10.74 1104 0 1114.75 0 1128C0 1141.25 10.74 1152 24 1152L120 1152C133.25 1152 144 1141.25 144 1128C144 1114.75 133.25 1104 120 1104L96 1104L96 816L120 816C133.25 816 144 805.25 144 792C144 778.75 133.25 768 120 768L24 768C10.74 768 0 778.75 0 792C0 805.25 10.74 816 24 816L48 816L48 1104L24 1104Z" />
		<path id="&lt;Path&gt;" class="shp0" d="M816 48C802.74 48 792 58.74 792 72L792 168C792 181.26 802.74 192 816 192C829.25 192 840 181.26 840 168L840 144L936 144L936 168C936 181.26 946.74 192 960 192C973.25 192 984 181.26 984 168L984 72C984 58.74 973.25 48 960 48C946.74 48 936 58.74 936 72L936 96L840 96L840 72C840 58.74 829.25 48 816 48Z" />
		<path id="&lt;Path&gt;" class="shp0" d="M960 1344C973.25 1344 984 1333.25 984 1320L984 1224C984 1210.75 973.25 1200 960 1200C946.74 1200 936 1210.75 936 1224L936 1248L312 1248L312 1224C312 1210.75 301.25 1200 288 1200C274.74 1200 264 1210.75 264 1224L264 1320C264 1333.25 274.74 1344 288 1344C301.25 1344 312 1333.25 312 1320L312 1296L936 1296L936 1320C936 1333.25 946.74 1344 960 1344Z" />
		<path id="&lt;Path&gt;" class="shp0" d="M1176 312C1189.25 312 1200 301.26 1200 288C1200 274.74 1189.25 264 1176 264L1080 264C1066.74 264 1056 274.74 1056 288C1056 301.26 1066.74 312 1080 312L1104 312L1104 1104L1080 1104C1066.74 1104 1056 1114.75 1056 1128C1056 1141.25 1066.74 1152 1080 1152L1176 1152C1189.25 1152 1200 1141.25 1200 1128C1200 1114.75 1189.25 1104 1176 1104L1152 1104L1152 312L1176 312Z" />
	</g>
</svg>
